src/banks/sofort.svg

<svg width="256" height="256" viewBox="0 0 256 256" fill="none" xmlns="http://www.w3.org/2000/svg">
<g clip-path="url(#clip0)">
<path d="M0 0H256V256H0V0Z" fill="#F48120"/>
<path d="M242.981 41.0258H142.77C126.967 41.0258 111.624 41.0258 97.8699 47.9709C84.1153 54.916 71.9861 68.8296 62.6308 96.6102C60.6109 102.585 59.5351 107.736 59.3965 112.207C59.2556 116.697 60.0425 120.509 61.7453 123.82C63.8452 127.861 67.2486 131.677 71.5164 134.876C76.0036 138.21 81.0383 140.742 86.396 142.359L93.0032 144.242L103.164 147.204C104.667 147.679 106.335 148.273 107.85 149.164C109.365 150.055 110.706 151.269 111.561 152.919C112.12 154.019 112.418 155.218 112.449 156.516C112.471 157.934 112.235 159.344 111.751 160.678C110.478 164.462 108.533 166.889 104.822 168.386C101.13 169.871 95.662 170.35 87.4271 170.406H-15.6993L-32 215H78.3819C88.7706 215 107.758 215 126.009 207.283C144.259 199.566 161.757 184.128 169.168 153.256C171.986 141.665 171.098 132.203 166.532 124.784C161.945 117.352 153.661 111.969 141.635 108.531L135.754 106.838L127.063 104.36C123.979 103.49 121.609 101.706 120.195 99.4373C118.814 97.1784 118.387 94.433 119.181 91.6269C120.017 88.7156 122.009 86.3889 124.905 84.7824C127.801 83.1759 131.622 82.3036 136.068 82.3036H200.238C200.696 81.6489 201.107 80.9474 201.562 80.2926C213.274 63.788 227.465 50.4309 243 41L242.981 41.0258Z" fill="white"/>
</g>
<defs>
<clipPath id="clip0">
<path d="M0 0H256V256H0V0Z" fill="white"/>
</clipPath>
</defs>
</svg>

<svg xmlns="http://www.w3.org/2000/svg" viewBox="0 0 256 256"><g clip-path="url(#clip0)"><path fill="#F48120" d="M0 0h256v256H0z"/><path fill="#fff" d="M242.981 41.026H142.77c-15.803 0-31.146 0-44.9 6.945-13.755 6.945-25.884 20.859-35.24 48.64-2.02 5.974-3.095 11.125-3.233 15.596-.141 4.49.645 8.302 2.348 11.613 2.1 4.041 5.504 7.857 9.771 11.056a48.4 48.4 0 0 0 14.88 7.483l6.607 1.883 10.161 2.962c1.503.475 3.171 1.069 4.686 1.96s2.856 2.105 3.711 3.755q.84 1.65.888 3.597a11.7 11.7 0 0 1-.698 4.162c-1.273 3.784-3.218 6.211-6.929 7.708-3.692 1.485-9.16 1.964-17.395 2.02H-15.699L-32 215H78.382c10.389 0 29.376 0 47.627-7.717 18.25-7.717 35.748-23.155 43.159-54.027 2.818-11.591 1.93-21.053-2.636-28.472-4.587-7.432-12.871-12.815-24.897-16.253l-5.881-1.693-8.691-2.478c-3.084-.87-5.454-2.654-6.868-4.923-1.381-2.259-1.808-5.004-1.014-7.81.836-2.911 2.828-5.238 5.724-6.845s6.717-2.478 11.163-2.478h64.17c.458-.655.869-1.357 1.324-2.011C213.274 63.788 227.465 50.43 243 41z"/></g><defs><clipPath id="clip0"><path fill="#fff" d="M0 0h256v256H0z"/></clipPath></defs></svg>
